src/assets/svg/5-store/0-avaliacao.svg

<svg width="115" height="24" viewBox="0 0 115 24" fill="none" xmlns="http://www.w3.org/2000/svg">
<path d="M96.492 22L98.817 14.4L92.667 10H100.267L102.667 2L105.067 10H112.667L106.517 14.4L108.842 22L102.667 17.3L96.492 22ZM99.242 17.925L102.667 15.325L106.092 17.925L104.717 13.6L107.867 11.55H104.092L102.667 7.225L101.242 11.55H97.467L100.617 13.6L99.242 17.925Z" fill="#FDA916"/>
<path d="M73.825 22L76.15 14.4L70 10H77.6L80 2L82.4 10H90L83.85 14.4L86.175 22L80 17.3L73.825 22ZM76.575 17.925L80 15.325L83.425 17.925L82.05 13.6L85.2 11.55H81.425L80 7.225L78.575 11.55H74.8L77.95 13.6L76.575 17.925Z" fill="#FDA916"/>
<path d="M80.0002 9.33331C77.8669 14.6666 79.1113 13.3333 80.0002 12L80.667 12.6666L77.472 16.9266M86.0003 12L77.472 16.9266M86.0003 12L81.3337 11.7255M86.0003 12C86.5337 12.0314 83.1114 12.0131 81.3337 12L82.0003 12.6666L82.667 13.3333M77.472 16.9266L76.667 18L78.667 13.3333L74.667 11.3333L81.3337 11.7255M80.0003 7.33331L80.667 11.3333L79.3337 8.66665L83.3337 18L79.3337 13.3333L77.3337 11.3333L82.0003 14.6666L84.0003 12L81.3337 11.7255" stroke="#FDA916"/>
<path d="M51.158 22L53.483 14.4L47.333 10H54.933L57.333 2L59.733 10H67.333L61.183 14.4L63.508 22L57.333 17.3L51.158 22ZM53.908 17.925L57.333 15.325L60.758 17.925L59.383 13.6L62.533 11.55H58.758L57.333 7.225L55.908 11.55H52.133L55.283 13.6L53.908 17.925Z" fill="#FDA916"/>
<path d="M57.3332 9.33331C55.1999 14.6666 56.4443 13.3333 57.3332 12L58 12.6666L54.805 16.9266M63.3333 12L54.805 16.9266M63.3333 12L58.6667 11.7255M63.3333 12C63.8667 12.0314 60.4444 12.0131 58.6667 12L59.3333 12.6666L60 13.3333M54.805 16.9266L54 18L56 13.3333L52 11.3333L58.6667 11.7255M57.3333 7.33331L58 11.3333L56.6667 8.66665L60.6667 18L56.6667 13.3333L54.6667 11.3333L59.3333 14.6666L61.3333 12L58.6667 11.7255" stroke="#FDA916"/>
<path d="M28.492 22L30.817 14.4L24.667 10H32.267L34.667 2L37.067 10H44.667L38.517 14.4L40.842 22L34.667 17.3L28.492 22ZM31.242 17.925L34.667 15.325L38.092 17.925L36.717 13.6L39.867 11.55H36.092L34.667 7.225L33.242 11.55H29.467L32.617 13.6L31.242 17.925Z" fill="#FDA916"/>
<path d="M34.6672 9.33331C32.5338 14.6666 33.7783 13.3333 34.6672 12L35.334 12.6666L32.139 16.9266M40.6673 12L32.139 16.9266M40.6673 12L36.0007 11.7255M40.6673 12C41.2007 12.0314 37.7784 12.0131 36.0007 12L36.6673 12.6666L37.334 13.3333M32.139 16.9266L31.334 18L33.334 13.3333L29.334 11.3333L36.0007 11.7255M34.6673 7.33331L35.334 11.3333L34.0007 8.66665L38.0007 18L34.0007 13.3333L32.0007 11.3333L36.6673 14.6666L38.6673 12L36.0007 11.7255" stroke="#FDA916"/>
<path d="M5.825 22L8.15 14.4L2 10H9.6L12 2L14.4 10H22L15.85 14.4L18.175 22L12 17.3L5.825 22ZM8.575 17.925L12 15.325L15.425 17.925L14.05 13.6L17.2 11.55H13.425L12 7.225L10.575 11.55H6.8L9.95 13.6L8.575 17.925Z" fill="#FDA916"/>
<path d="M12.0002 9.33331C9.86686 14.6666 11.1113 13.3333 12.0002 12L12.667 12.6666L9.47199 16.9266M18.0003 12L9.47199 16.9266M18.0003 12L13.3337 11.7255M18.0003 12C18.5337 12.0314 15.1114 12.0131 13.3337 12L14.0003 12.6666L14.667 13.3333M9.47199 16.9266L8.66699 18L10.667 13.3333L6.66699 11.3333L13.3337 11.7255M12.0003 7.33331L12.667 11.3333L11.3337 8.66665L15.3337 18L11.3337 13.3333L9.33366 11.3333L14.0003 14.6666L16.0003 12L13.3337 11.7255" stroke="#FDA916"/>
</svg>

<svg width="115" height="24" fill="none" xmlns="http://www.w3.org/2000/svg"><path d="m96.492 22 2.325-7.6-6.15-4.4h7.6l2.4-8 2.4 8h7.6l-6.15 4.4 2.325 7.6-6.175-4.7-6.175 4.7Zm2.75-4.075 3.425-2.6 3.425 2.6-1.375-4.325 3.15-2.05h-3.775l-1.425-4.325-1.425 4.325h-3.775l3.15 2.05-1.375 4.325ZM73.825 22l2.325-7.6L70 10h7.6L80 2l2.4 8H90l-6.15 4.4 2.325 7.6L80 17.3 73.825 22Zm2.75-4.075 3.425-2.6 3.425 2.6L82.05 13.6l3.15-2.05h-3.775L80 7.225l-1.425 4.325H74.8l3.15 2.05-1.375 4.325Z" fill="#FDA916"/><path d="M80 9.333c-2.133 5.334-.889 4 0 2.667l.667.667-3.195 4.26M86 12l-8.528 4.927M86 12l-4.666-.274M86 12c.534.031-2.889.013-4.666 0l.666.667.667.666m-5.195 3.594L76.667 18l2-4.667-4-2 6.667.393M80 7.333l.667 4-1.333-2.666 4 9.333-4-4.667-2-2L82 14.667 84 12l-2.666-.274" stroke="#FDA916"/><path d="m51.158 22 2.325-7.6-6.15-4.4h7.6l2.4-8 2.4 8h7.6l-6.15 4.4 2.325 7.6-6.175-4.7-6.175 4.7Zm2.75-4.075 3.425-2.6 3.425 2.6-1.375-4.325 3.15-2.05h-3.775l-1.425-4.325-1.425 4.325h-3.775l3.15 2.05-1.375 4.325Z" fill="#FDA916"/><path d="M57.333 9.333c-2.133 5.334-.889 4 0 2.667l.667.667-3.195 4.26M63.333 12l-8.528 4.927M63.333 12l-4.666-.274m4.666.274c.534.031-2.889.013-4.666 0l.666.667.667.666m-5.195 3.594L54 18l2-4.667-4-2 6.667.393m-1.334-4.393.667 4-1.333-2.666 4 9.333-4-4.667-2-2 4.666 3.334 2-2.667-2.666-.274" stroke="#FDA916"/><path d="m28.492 22 2.325-7.6-6.15-4.4h7.6l2.4-8 2.4 8h7.6l-6.15 4.4 2.325 7.6-6.175-4.7-6.175 4.7Zm2.75-4.075 3.425-2.6 3.425 2.6-1.375-4.325 3.15-2.05h-3.775l-1.425-4.325-1.425 4.325h-3.775l3.15 2.05-1.375 4.325Z" fill="#FDA916"/><path d="M34.667 9.333c-2.133 5.334-.889 4 0 2.667l.667.667-3.195 4.26M40.667 12l-8.528 4.927M40.667 12l-4.666-.274m4.666.274c.534.031-2.889.013-4.666 0l.666.667.667.666m-5.195 3.594L31.334 18l2-4.667-4-2 6.667.393m-1.334-4.393.667 4-1.333-2.666L38 18l-4-4.667-2-2 4.666 3.334 2-2.667-2.666-.274" stroke="#FDA916"/><path d="m5.825 22 2.325-7.6L2 10h7.6L12 2l2.4 8H22l-6.15 4.4 2.325 7.6L12 17.3 5.825 22Zm2.75-4.075 3.425-2.6 3.425 2.6L14.05 13.6l3.15-2.05h-3.775L12 7.225l-1.425 4.325H6.8l3.15 2.05-1.375 4.325Z" fill="#FDA916"/><path d="M12 9.333c-2.133 5.334-.889 4 0 2.667l.667.667-3.195 4.26M18 12l-8.528 4.927M18 12l-4.666-.274M18 12c.534.031-2.889.013-4.666 0l.666.667.667.666m-5.195 3.594L8.667 18l2-4.667-4-2 6.667.393M12 7.333l.667 4-1.333-2.666 4 9.333-4-4.667-2-2L14 14.667 16 12l-2.666-.274" stroke="#FDA916"/></svg>
